icons/op-loading1-24.svg

<svg width="24" height="24" viewBox="0 0 24 24" fill="none" xmlns="http://www.w3.org/2000/svg">
<path d="M13.0039 5.97647C13.0039 6.2902 12.7529 6.54118 12.4706 6.54118C12.1882 6.54118 11.9373 6.2902 11.9373 5.97647V4.56471C11.9373 4.25098 12.1882 4 12.4706 4C12.7529 4 13.0039 4.25098 13.0039 4.56471V5.97647ZM9.64706 6.2902C9.80392 6.54118 9.7098 6.88627 9.45882 7.04314C9.20784 7.16863 8.86275 7.07451 8.70588 6.82353L8.01569 5.6C7.85882 5.31765 7.92157 5.00392 8.20392 4.84706C8.4549 4.6902 8.76863 4.78431 8.92549 5.06667L9.64706 6.2902ZM7.26275 8.1098C7.5451 8.26667 7.63922 8.61176 7.51373 8.86275C7.35686 9.11373 7.01177 9.20784 6.72941 9.05098L5.53726 8.36078C5.2549 8.20392 5.16078 7.85882 5.31765 7.60784C5.44314 7.35686 5.78824 7.26275 6.07059 7.41961L7.26275 8.1098ZM5.97647 10.9961C6.2902 10.9961 6.54118 11.2471 6.54118 11.5294C6.54118 11.8118 6.2902 12.0627 5.97647 12.0627H4.56471C4.25098 12.0627 4 11.8431 4 11.5294C4 11.2471 4.25098 10.9961 4.56471 10.9961H5.97647ZM6.2902 14.1647C6.54118 14.0078 6.88627 14.0706 7.04314 14.3216C7.16863 14.5725 7.07451 14.9176 6.82353 15.0745L5.6 15.7647C5.31765 15.9216 5.00392 15.8588 4.84706 15.6078C4.6902 15.3255 4.81569 15.0118 5.06667 14.8549L6.2902 14.1647ZM8.1098 16.7373C8.26667 16.4549 8.61176 16.3608 8.86275 16.4863C9.11373 16.6431 9.20784 16.9882 9.05098 17.2706L8.36078 18.4627C8.20392 18.7451 7.85882 18.8392 7.60784 18.6824C7.35686 18.5569 7.26275 18.2118 7.41961 17.9294L8.1098 16.7373ZM10.9961 18.0235C10.9961 17.7098 11.2471 17.4588 11.5294 17.4588C11.8118 17.4588 12.0627 17.7098 12.0627 18.0235V19.4353C12.0627 19.749 11.8118 20 11.5294 20C11.2471 20 10.9961 19.749 10.9961 19.4353V18.0235ZM14.1647 17.7098C14.0078 17.4588 14.0706 17.1137 14.3216 16.9569C14.5725 16.8314 14.9176 16.9255 15.0745 17.1765L15.7647 18.4C15.9216 18.6824 15.8588 18.9961 15.6078 19.1529C15.3255 19.3098 15.0118 19.2157 14.8549 18.9333L14.1647 17.7098ZM16.7373 15.8902C16.4549 15.7333 16.3608 15.3882 16.4863 15.1373C16.6431 14.8863 16.9882 14.7922 17.2706 14.949L18.4627 15.6706C18.7451 15.7961 18.8392 16.1412 18.6824 16.3922C18.5569 16.6431 18.2118 16.7373 17.9294 16.5804L16.7373 15.8902ZM18.0235 13.0039C17.7098 13.0039 17.4588 12.7529 17.4588 12.4706C17.4588 12.1569 17.7098 11.9373 18.0235 11.9373H19.4353C19.749 11.9373 20 12.1569 20 12.4706C20 12.7529 19.749 13.0039 19.4353 13.0039H18.0235ZM17.7098 9.83529C17.4588 9.99216 17.1137 9.92941 16.9569 9.67843C16.8314 9.42745 16.9255 9.08235 17.1765 8.92549L18.4 8.23529C18.6824 8.07843 18.9961 8.14118 19.1529 8.39216C19.3098 8.67451 19.2157 8.98824 18.9333 9.1451L17.7098 9.83529ZM15.8902 7.26275C15.7333 7.5451 15.3882 7.63922 15.1373 7.51373C14.8863 7.35686 14.7922 7.01177 14.949 6.72941L15.6392 5.53726C15.7961 5.2549 16.1412 5.16078 16.3922 5.31765C16.6431 5.44314 16.7373 5.78824 16.5804 6.07059L15.8902 7.26275Z" fill="black"/>
</svg>

<svg xmlns="http://www.w3.org/2000/svg" width="24" height="24" viewBox="0 0 24 24"><path d="M13.004 5.976c0 .314-.251.565-.533.565-.283 0-.534-.251-.534-.565V4.565c0-.314.251-.565.534-.565.282 0 .533.251.533.565v1.411Zm-3.357.314c.157.251.063.596-.188.753a.6.6 0 0 1-.753-.219L8.016 5.6c-.157-.282-.094-.596.188-.753.251-.157.565-.063.721.22l.722 1.223ZM7.263 8.11a.582.582 0 0 1 .251.753.59.59 0 0 1-.785.188l-1.192-.69c-.282-.157-.376-.502-.219-.753.125-.251.47-.345.753-.188l1.192.69Zm-1.287 2.886c.314 0 .565.251.565.533 0 .283-.251.534-.565.534H4.565c-.314 0-.565-.22-.565-.534 0-.282.251-.533.565-.533h1.411Zm.314 3.169c.251-.157.596-.094.753.157a.601.601 0 0 1-.219.753l-1.224.69c-.282.157-.596.094-.753-.157-.157-.283-.031-.596.22-.753l1.223-.69Zm1.82 2.572a.582.582 0 0 1 .753-.251.59.59 0 0 1 .188.785l-.69 1.192c-.157.282-.502.376-.753.219-.251-.125-.345-.47-.188-.753l.69-1.192Zm2.886 1.286c0-.313.251-.564.533-.564.283 0 .534.251.534.564v1.412c0 .314-.251.565-.534.565-.282 0-.533-.251-.533-.565v-1.412Zm3.169-.313c-.157-.251-.094-.596.157-.753a.6.6 0 0 1 .753.22l.69 1.223c.157.282.094.596-.157.753a.534.534 0 0 1-.753-.22l-.69-1.223Zm2.572-1.82a.582.582 0 0 1-.251-.753.59.59 0 0 1 .785-.188l1.192.722a.5.5 0 0 1 .219.721c-.125.251-.47.345-.753.188l-1.192-.69Zm1.286-2.886c-.313 0-.564-.251-.564-.533 0-.314.251-.534.564-.534h1.412c.314 0 .565.22.565.534 0 .282-.251.533-.565.533h-1.412Zm-.313-3.169c-.251.157-.596.094-.753-.157a.6.6 0 0 1 .22-.753l1.223-.69c.282-.157.596-.094.753.157a.534.534 0 0 1-.22.753l-1.223.69Zm-1.82-2.572a.582.582 0 0 1-.753.251.59.59 0 0 1-.188-.785l.69-1.192c.157-.282.502-.376.753-.219.251.125.345.47.188.753l-.69 1.192Z"/></svg>
